source/img/icon-4.svg

<svg width="93" height="101" fill="none" xmlns="http://www.w3.org/2000/svg"><path d="M44.85.2l-42 53.85L.6 72.35h41.55l-.9 7.2H33.9L31.35 101h49.2l2.55-21.45h-8.25l.9-7.2H90l2.7-21.9H78.45L84.6.2H44.85zm2.85 29.25l-2.7 21H31.65l8.1-10.95 7.2-10.05h.75z" fill="#00A9CF"/></svg>

<svg width="93" height="101" viewBox="0 0 93 101" fill="none" xmlns="http://www.w3.org/2000/svg">
<path d="M44.85 0.199992L2.85 54.05L0.6 72.35H42.15L41.25 79.55H33.9L31.35 101H80.55L83.1 79.55H74.85L75.75 72.35H90L92.7 50.45H78.45L84.6 0.199992H44.85ZM47.7 29.45L45 50.45H31.65L39.75 39.5L46.95 29.45H47.7Z" fill="#00A9CF"/>
</svg>
